X:1
T:Sechs Lieder, Op.25
T:Lied (Immer sich rein kindlich erfreu'n)
T:4. Lied (Immer sich rein kindlich erfreu'n)
T:Josephine Lang
T:Sechs Lieder, Op.25
T:Wilhelm von Ungern-Sternberg
T:OpenScore (CC0)
T:OpenScore (CC0)
T:OpenScore (CC0)
T:OpenScore (CC0)
T:OpenScore (CC0)
C:Josephine Lang
Z:Wilhelm Heilwig Carl Robert August von Ungern-Sternberg
Z:OpenScore (CC0)
%%score ( 1 2 ) { ( 3 6 ) | ( 4 5 ) }
L:1/8
Q:1/4=110
M:4/4
K:E
V:1 treble nm="Voice"
V:2 treble 
V:3 treble nm="Piano"
V:6 treble 
V:4 bass 
V:5 bass 
V:1
"^Ziemlich rasch" G4- GA ^A B | (c4 B2) z2 | G4 d3 c | F4 z4 | F4 F2 F2 | B2 z2 !>!e4- | %6
w: Im- * * mer sich|rein *|kind- lich er-|freu'n,|se- lig, wer's|kann, se-|
 e4 dB A F | E4 z4 | z8 | z8 | F4!<(! F2 F2!<)! |!>(! G4 F2!>)! z2 |"^dolce" e4 d2 c2 | %13
w: * * * lig, wer's|kann.|||Ju- beln und|sing- en,|hüp- fen und|
 (d2 ^A2) B2 z2 | f4 d2 B2 | (e2!<(! =g4!<)! ^A2) | B4- B>^A (3=A C3/2 D/ | E4 z4 | z8 | z8 | z8 | %21
w: sprin- * gen,|se- lig, wer's|kann, * *|se- * * * lig, wer's|kann.||||
 z8 |!p! G4- GA ^A B | c4 B2 z =A |!<(! G4!<)! d2!>(! (c2!>)! |"^dim." F3){/F} A/G/ F2 z2 | %26
w: |La- * * chen und|scher- zen mit|fröh- li- chem|Her- * * zen.|
 F4 F2 F2 | B2 z2!f! e4- | e4 dB A F | E4 z4 | z8 | z8 | F4 F2 F2 | G4 F2 z2 |!f! e4 d2 c2 | %35
w: se- lig, wer's|kann, se-|* * * lig, wer's|kann.|||Sor- gen zer-|streu- en,|ger- ne ver-|
 (d2 ^A2) B2 z2 |!p!!>(! f4!>)! d2 z B | (e2!f! =g4 ^A2) | B4- B>^A (3!fermata!=A"^rit." C D | %39
w: zei- * hen,|se- lig, wer's|kann * *|se- * * * lig, wer's|
 E4 z4 | z8 | z8 | z8 | z8 | G4- GA ^A B | c4 B2 z2 |!<(! G4!<)!!>(! d3!>)! c | F3 A/G/ F2 z2 | %48
w: kann.|||||Men- * * schen be-|glü- cken,|welch' ein Ent-|zü- * * cken!|
 F4 F2 F2 | B2 z2!f! e4- | e4"^dim." dB A F | E4 z4 | F4 F2 F2 | G4 F2 F2 | e4 d2 z c | d2 ^A2 B4 | %56
w: Se- lig, wer's|kann, se-|* * * ig, wer's|kann.|Bö- ses nicht|mes- sen und|Viel- es ver-|ges- * sen,|
!p! !^!f4 d2 z (B | e2 =g4 ^A2) |!<(! B4!<)!!>(! !fermata!d2"^ad. lib."{cB^A=A} C3/2!>)! D/ | %59
w: se- lig, wer's|kann, * *|se- * lig, wer's|
 !fermata!E4 z4 | z8 | z8 | z8 | z8 |] %64
w: kann.|||||
V:2
 x8 | x8 | x8 | x8 | x8 | x8 | x8 | x8 | x8 | x8 | x8 | x8 | x8 | x8 | x8 | %15
 x2 x2"^rit."!>(! x2!>)! x2 | x8 | x8 | x8 | x8 | x8 | x8 | x8 | x8 | x8 | x8 | x8 | x8 | x8 | x8 | %30
 x8 | x8 | x8 | x8 | x8 | x8 | x8 | x8 | x8 | x8 | x8 | x8 | x8 | x8 | x8 | x8 | x8 | x8 | x8 | %49
 x8 | x8 | x8 | x8 | x8 | x8 | x8 | x8 | x8 | x8 | x8 | x8 | x8 | x8 | x8 |] %64
V:3
!pp! (3z [B,EG][B,EG] (3z [B,EG][B,EG] (3z [B,EG][B,EG] (3z [B,EG][B,EG] | %1
 (3z [B,DA][B,DA] (3z [B,DA][B,DA] (3z [B,DA][B,DA] (3z [B,DA][B,DA] | %2
 (3z [B,EG][B,EG] (3z [B,EG][B,EG] (3z [^A,EF][A,EF] (3z [A,EF][A,EF] | %3
 (3z [B,DF][B,DF] (3z [B,DF][B,DF] (3z [B,DF][B,DF] (3z [B,DF][B,DF] | %4
 (3z [B,DF][B,DF] (3z [B,DF][B,DF] (3z [CEF][CEF] (3z [B,DF][B,DF] | %5
 (3z [B,EB][B,EB] (3z!<(! [B,DA][B,DA] (3z [B,EG][B,EG] (3z [^A,E^^F][A,EF]!<)! | %6
!>(! (3z [B,EG][B,EG] (3z [B,EG][B,EG]!>)! (3z [=A,DF][A,DF] (3z [A,DF][A,DF] | %7
 (3z [G,B,E][G,B,E] (3z [G,B,E][G,B,E] (3z [B,EG][B,EG] (3z [B,EG][B,EG] | %8
 (3z [B,FA][B,FA] (3z [B,FA][B,FA] (3z [B,EG][B,EG] (3z [B,EG][B,EG] | %9
 (3z [B,EG][B,EG] (3z [B,EG][B,EG] (3z [B,DF][B,DF] (3z [FBd][FBd] | %10
 (3z [^A,EF][A,EF] (3z [B,EF][B,EF] (3z [^B,EF][B,EF] (3z [A,EF][A,EF] | %11
 (3z [B,EF][B,EF] (3z [^A,EF][A,EF] (3z [A,EF][A,EF] (3z [A,EF][A,EF] | %12
 (3z [^A,EF][A,EF] (3z [A,EF][A,EF] (3z [B,EF][B,EF] (3z [CEF][CEF] | %13
 (3z [B,DF][B,DF] (3z [^A,CEF][A,CEF] (3z [B,F][B,F] (3z [B,F][B,F] | %14
 (3z [DFB][DFB] (3z [DFB][DFB] (3z [DFB][DFB] (3z [DFB][DFB] | %15
 (3z [EB][EB] (3z [E=G^A][EGA] (3z [EGA][EGA] (3z [EGA][EGA] | %16
!p! (3z [E^GB][EGB] (3z [EG][EG] (3z [=A,EF][A,EF] (3z [A,DF][A,DF] | %17
 (3z [G,B,E][G,B,E]!pp! (3z [G,B,E][G,B,E] (3z [G,B,E][G,B,E] (3z [B,EG][B,EG] | %18
 (3z"_cresc." [B,FA][B,FA] (3z [B,FA][B,FA] (3z [B,EG][B,EG] (3z [B,EG][B,EG] | %19
 (3z [B,EG][B,EG] (3z [B,EG][B,EG] (3z [B,DF][B,DF]!f! (3z [FBd][FBd] | %20
 (3z [EBe][EBe] (3z [Beg][Beg] (3z!f! [Bdab][Bdab] (3z!ff! [dfad'][dfad'] | %21
 (3z [ege'][ege'] (3z [B,EG][B,EG] (3z [B,EG][B,EG] (3z [B,EG][B,EG] | %22
!p! (3z [B,EG][B,EG] (3z [B,EG][B,EG] (3z [B,EG][B,EG] (3z [B,EG][B,EG] | %23
 (3z [B,DA][B,DA] (3z [B,DA][B,DA] (3z [B,DA][B,DA] (3z [B,DA][B,DA] | %24
!<(! (3z [B,EG][B,EG] (3z [B,EG][B,EG] (3z [^A,EF][A,EF] (3z [A,EF][A,EF]!<)! | %25
 (3z [B,DF]"_dim."[B,DF] (3z [B,DF][B,DF] (3z [B,DF][B,DF] (3z [B,DF][B,DF] | %26
 (3z [B,DF][B,DF] (3z [B,DF][B,DF] (3z [CEF][CEF]"_cresc." (3z [B,DF][B,DF] | %27
 (3z [B,EB][B,EB] (3z [B,DA][B,DA] (3z [B,EG][B,EG] (3z [^A,E^^F][A,EF] | %28
 (3z [B,EG][B,EG] (3z [B,EG][B,EG] (3z [=A,EF][A,EF] (3z [A,FA][A,FA] | %29
!f! (3z [G,B,E][G,B,E]!p! (3z [G,B,E][G,B,E] (3z [B,EG][B,EG] (3z [B,EG][B,EG] | %30
 (3z [B,FA][B,FA] (3z [B,FA][B,FA] (3z [B,EG][B,EG] (3z [B,EG][B,EG] | %31
 (3z [B,EG][B,EG] (3z [B,EG][B,EG] (3z [B,^DF][B,DF] (3z [B,DF][B,DF] | %32
 (3z [^A,EF][A,EF] (3z [B,EF][B,EF] (3z [^B,EF][B,EF] (3z [CEF][CEF] | %33
 (3z [=B,EF][B,EF] (3z [^A,EF][A,EF] (3z [A,EF][A,EF] (3z [A,EF][A,EF] | %34
!f! (3z [^A,EF][A,EF] (3z [A,EF][A,EF] (3z [B,EF][B,EF] (3z"_cresc." [CEF][CEF] | %35
 (3z [B,DF][B,DF] (3z [^A,EF][A,EF] (3z [B,F][B,F] (3z [B,DF][B,DF] | %36
 (3z [B,DF][B,DF] (3z [B,DF][B,DF] (3z [DFB][DFB] (3z [DFB][DFB] | %37
 (3z [EB][EB]"_cresc." (3z [E=G^A][EGA] (3z [EGA][EGA] (3z [EGA][EGA] | %38
 (3z [E^GB][EGB] (3z [EGB][EGB] (3z [DFAd][DFAd] !fermata![DFAB]2 | %39
!p! (3z [B,EG][B,EG] (3z [B,EG][B,EG] (3z [B,EG][B,EG] (3z [B,EG][B,EG] | %40
 (3z!<(! [B,FA][B,FA] (3z [B,FA]!<)![B,FA]!>(! (3z [B,EG][B,EG] (3z [B,EG]!>)![B,EG] | %41
!<(! (3z [B,EG][B,EG] (3z!<)!!>(! [B,EG][B,EG] (3z [B,DF]!>)![B,DF] (3z [FBd][FBd] | %42
 (3z [EBe][EBe] (3z [Beg][Beg]"_cresc." (3z [Bfab][Bfab] (3z [dfad'][dfad'] | %43
!ff! (3z [ege'][ege']!p! (3z [B,EG][B,EG] (3z [B,EG][B,EG] (3z [B,EG][B,EG] | %44
 (3z [B,EG][B,EG] (3z [B,EG][B,EG] (3z [B,EG][B,EG] (3z [B,EG][B,EG] | %45
 (3z [B,DA][B,DA] (3z [B,DA][B,DA] (3z [B,DA][B,DA] (3z [B,DA][B,DA] | %46
 (3z [B,EG][B,EG] (3z [B,EG][B,EG] (3z [^A,EF][A,EF] (3z [A,EF][A,EF] | %47
 (3z [B,DF][B,DF] (3z [B,DF][B,DF] (3z [B,DF][B,DF] (3z [B,DF][B,DF] | %48
 (3z [B,DF][B,DF] (3z [B,DF][B,DF] (3z [CEF][CEF] (3z [B,DF][B,DF] | %49
 (3z [B,EB][B,EB] (3z [B,DA][B,DA] (3z [B,EG][B,EG] (3z [^A,E^^F][A,EF] | %50
 (3z [B,EG][B,EG] (3z [B,EG][B,EG] (3z [B,DFA][B,DFA] (3z [DFA][DFA] | %51
 (3z [EG][EG]!p! (3z [EG][EG] (3z [B,EG][B,EG] (3z [B,EG][B,EG] | %52
 (3z [^A,EF][A,EF] (3z [B,EF][B,EF] (3z [^B,EF][B,EF] (3z [A,EF][A,EF] | %53
 (3z [=B,EF][B,EF] (3z [^A,EF][A,EF] (3z [A,EF][A,EF]!ff! (3z [A,EF][A,EF] | %54
 (3z [^A,EF][A,EF] (3z [A,EF][A,EF] (3z [B,EF][B,EF] (3z [CEF][CEF] | %55
 (3z [B,DF][B,DF] (3z [A,CEF][A,CEF] (3z [B,F][B,F] (3z [B,DF][B,DF] | %56
 (3z [B,DF][B,DF] (3z [B,DF][B,DF] (3z [DFB][DFB] (3z [DFB][DFB] | %57
 (3z [EB]!f![EB] (3z [E=G^A][EGA] (3z [EGA][EGA] (3z [EGA][EGA] | %58
 (3z [E^GB][EGB] (3z [B,EG][B,EG] !fermata![A,DFB]4 | %59
!f! (3z [G,B,EG][G,B,EG] (3z [G,B,EG][G,B,EG] (3z [G,B,EG][G,B,EG] (3z [G,B,EG][G,B,EG] | %60
 (3z [B,FA][B,FA] (3z [B,FA][B,FA] (3z [B,EG][B,EG] (3z [B,EG][B,EG] | %61
 (3z [B,EG][B,EG] (3z [B,EG][B,EG] (3z [B,DF][B,DF] (3z [FBd][FBd] | %62
"_cresc." (3z [EBe][EBe] (3z [Beg][Beg] b>^a (3([=A=a][Cc][Dd]) |!ff! [Ee]2 [G,B,E]2 !fermata!z4 |] %64
V:4
 [E,,E,] z [D,,D,] z [E,,E,] z [B,,,B,,] z | [F,,F,] z [^E,,^E,] z [F,,F,] z [B,,,B,,] z | %2
 [E,,E,] z [D,,D,] z [C,,C,] z [F,,,F,,] z | [B,,,B,,] z [^A,,,^A,,] z [B,,,B,,] z [D,,D,] z | %4
 F, z B, z ^A, z =A, z | G,2 F,2 E,2 =C,2 | B,,2 ^A,,2 B,,2 B,,,2 | %7
"^ben legato" E,,2 ^A,,2 B,,2 E,,2 | D,,2 B,,,2 E,,2 G,,2 | B,,2 ^A,,2 B,,2 B,2 | %10
 [F,,,F,,]2 [G,,,G,,]2 [^^G,,,^^G,,]2 [^A,,,^A,,]2 | [B,,,B,,]2 [^C,,^C,]2 [C,,C,]2 [C,,C,]2 | %12
 F,,2 F,,2 G,,2 ^A,,2 | B,,2 C,2 D,2 F,2 | B,,2 F,2 B,2 =A,2 | G,2 =G,2 =C2 =C,2 | %16
 [B,,B,]2 ^A,2 B,2 B,,2 | E,,2 ^A,,2 B,,2 E,,2 | D,,2 B,,,2 E,,2 G,,2 | B,,2 ^A,,2 B,,2 [=A,B,]2 | %20
 [G,B,]2 E,2 F,2 [B,,B,]2 | [E,B,]2 E,2 D,2 E,2 | [E,,E,]2 [D,,D,]2 [E,,E,]2 [B,,,B,,]2 | %23
 [F,,F,]2 [^E,,^E,]2 [F,,F,]2 [B,,,B,,]2 | [E,,E,]2 [D,,D,]2!>(! [C,,C,]2 [F,,,F,,]2!>)! | %25
!p! [B,,,B,,]2 ^A,,2 B,,2 D,2 | F,2 B,2 ^A,2 =A,2 | [G,,G,]2 [F,,F,]2 [E,,E,]2 [=C,,=C,]2 | %28
 [B,,,B,,]2 [^A,,,^A,,]2 [B,,,B,,]2 B,,2 | E,,2 ^A,,2 B,,2 E,,2 | D,,2 B,,,2 E,,2 G,,2 | %31
 B,,2 ^A,,2 B,,2 D,2 | F,,2 G,,2 ^^G,,2 ^A,,2 | =B,,2 C,2 C,2 C,2 | F,,2 F,2 G,,2 ^A,,2 | %35
!pp! B,,2 C,2 D,2 F,2 | B,,2 F,2 B,2 =A,2 | G,2 [=C,=G,=C]2 C2 C,2 | %38
 [B,,B,]2 ^A,2 B,2 !fermata![B,,F,B,]2 | E,2 B,,2 G,,2 E,,2 | D,,2 B,,,2 E,,2 G,,2 | %41
 B,,2 ^A,,2 B,,2 [=A,B,]2 | [G,B,]2 E,2 ^D,2 [B,,B,]2 | E,2 B,,2 G,,2 B,,2 | %44
 [E,,E,]2 [D,,D,]2 [E,,E,]2 [B,,,B,,]2 | [F,,F,]2 [^E,,^E,]2 [F,,F,]2 [B,,,B,,]2 | %46
 [E,,E,]2 [D,,D,]2 [C,,C,]2 F,,2 | B,,2!p! ^A,,2 B,,2 D,2 | %48
 [F,,F,]2 [B,,B,]2 [^A,,^A,]2 [=A,,=A,]2 | [G,,G,]2 [F,,F,]2 [E,,E,]2 [=C,,=C,]2 | %50
 [B,,,B,,]2 ^A,,2 B,,2 B,2 | E,2 D,2 E,2 E,,2 | [F,,,F,,]2 [G,,,G,,]2 [^^G,,,^^G,,]2 [^A,,,^A,,]2 | %53
 [=B,,,=B,,]2 [C,,C,]2 [C,,C,]2 [C,,C,]2 | F,,2 F,2 G,,2 ^A,,2 | B,,2 C,2 D,2 F,2 | %56
 B,,2 F,2 B,2 =A,2 | G,2 [=C,=G,=C]2 C2 C,2 | B,,2 E,G, !fermata!B,,4 | E,2 !^!^A,,2 B,,2 E,,2 | %60
 ^D,,2 B,,,2 E,,2 G,,2 | B,,2 ^A,,2 B,,2 [A,=B,]2 | [G,B,]2 E,2 [B,,D,F,A,]4 | %63
 [E,G,]2 [E,,B,,E,]2 z4 |] %64
V:5
 x8 | x8 | x8 | x8 | x8 | x8 | x8 | x8 | x8 | x8 | x8 | x8 | x8 | x8 | x8 | z2 C,4 x2 | x8 | x8 | %18
 x8 | x8 | x8 | x8 | x8 | x8 | x8 | x8 | x8 | x8 | x8 | x8 | x8 | x8 | x8 | x8 | x8 | x8 | x8 | %37
 x8 | x8 | x8 | x8 | x8 | x8 | x8 | x8 | x8 | x8 | x8 | x8 | x8 | x8 | x8 | x8 | x8 | x8 | x8 | %56
 x8 | x8 | x8 | x8 | x8 | x8 | x8 | x8 |] %64
V:6
 x8 | x8 | x8 | x8 | x8 | x8 | x8 | x8 | x8 | x8 | x8 | x8 | x8 | x8 | x8 | x8 | x8 | x8 | x8 | %19
 x8 | x8 | x8 | x8 | x8 | x8 | x8 | x8 | x8 | x8 | x8 | x8 | x8 | x8 | x8 | x8 | x8 | x8 | x8 | %38
 x8 | x8 | x8 | x8 | x8 | x8 | x8 | x8 | x8 | x8 | x8 | x8 | x8 | x8 | x8 | x8 | x8 | x8 | x8 | %57
 x8 | x8 | x8 | x8 | x8 | x4 [Bdf]>^A x2 | x8 |] %64

